svg/food/egg_crack_line.svg

<?xml version="1.0" encoding="UTF-8"?>
<svg width="24px" height="24px" viewBox="0 0 24 24" version="1.1" xmlns="http://www.w3.org/2000/svg" xmlns:xlink="http://www.w3.org/1999/xlink">
    <title>egg_crack_line</title>
    <g id="Icon" stroke="none" stroke-width="1" fill="none" fill-rule="evenodd">
        <g id="Food" transform="translate(-230.000000, -250.000000)">
            <g id="egg_crack_line" transform="translate(230.000000, 250.000000)">
                <path d="M24,0 L24,24 L0,24 L0,0 L24,0 Z M12.5935,23.2578 L12.5819,23.2595 L12.5109,23.295 L12.4919,23.2987 L12.4767,23.295 L12.4057,23.2595 C12.3958,23.2564 12.387,23.259 12.3821,23.2649 L12.378,23.2758 L12.3609,23.7031 L12.3659,23.7235 L12.3769,23.7357 L12.4805,23.8097 L12.4953,23.8136 L12.5071,23.8097 L12.6107,23.7357 L12.6233,23.7197 L12.6267,23.7031 L12.6096,23.2758 C12.6076,23.2657 12.601,23.2593 12.5935,23.2578 Z M12.8584,23.1453 L12.8445,23.1473 L12.6598,23.2397 L12.6499,23.2499 L12.6472,23.2611 L12.6651,23.6906 L12.6699,23.7034 L12.6784,23.7105 L12.8793,23.8032 C12.8914,23.8069 12.9022,23.803 12.9078,23.7952 L12.9118,23.7812 L12.8777,23.1665 C12.8753,23.1546 12.8674,23.147 12.8584,23.1453 Z M12.143,23.1473 C12.1332,23.1424 12.1222,23.1453 12.1156,23.1526 L12.1099,23.1665 L12.0758,23.7812 C12.0751,23.7927 12.0828,23.8019 12.0926,23.8046 L12.1083,23.8032 L12.3092,23.7105 L12.3186,23.7024 L12.3225,23.6906 L12.3404,23.2611 L12.3372,23.2485 L12.3278,23.2397 L12.143,23.1473 Z" id="MingCute" fill-rule="nonzero"></path>
                <path d="M12,2 C10.9539,2 9.93404,2.47181 9.04314,3.13562 C8.13993,3.8086 7.28605,4.73925 6.55096,5.80847 C5.08805,7.93634 4,10.7552 4,13.5 C4,15.9761 4.82871,18.1076 6.27586,19.6272 C7.72459,21.1483 9.74115,22 12,22 C14.2589,22 16.2754,21.1483 17.7241,19.6272 C19.1713,18.1076 20,15.9761 20,13.5 C20,10.7552 18.9119,7.93634 17.449,5.80847 C16.714,4.73925 15.8601,3.8086 14.9569,3.13562 C14.066,2.47181 13.0461,2 12,2 Z M6,13.5 C6,11.2448 6.91195,8.81366 8.19904,6.94153 C8.83895,6.01075 9.54757,5.2539 10.2381,4.73938 C10.941,4.21569 11.5461,4 12,4 C12.3491,4 12.7878,4.12762 13.2916,4.42489 L10.2106,8.38606 C10.0114,8.64223 9.94886,8.97917 10.0429,9.28978 C10.137,9.6004 10.3759,9.84606 10.6838,9.94868 L12.7351,10.6325 L12.0513,12.6838 C11.8767,13.2077 12.1598,13.774 12.6838,13.9487 C13.2077,14.1233 13.774,13.8402 13.9487,13.3162 L14.9487,10.3162 C15.1233,9.79228 14.8402,9.22596 14.3162,9.05132 L12.6571,8.49827 L14.825,5.71095 C15.16,6.07441 15.4886,6.48726 15.801,6.94153 C17.0881,8.81366 18,11.2448 18,13.5 C18,15.5239 17.3287,17.1424 16.2759,18.2478 C15.2246,19.3517 13.7411,20 12,20 C10.2589,20 8.77541,19.3517 7.72414,18.2478 C6.67129,17.1424 6,15.5239 6,13.5 Z" id="形状" fill="#09244B"></path>
            </g>
        </g>
    </g>
</svg>

<svg xmlns="http://www.w3.org/2000/svg" width="24" height="24"><g fill="none" fill-rule="evenodd"><path d="M24 0v24H0V0h24ZM12.594 23.258l-.012.002-.071.035-.02.004-.014-.004-.071-.036c-.01-.003-.019 0-.024.006l-.004.01-.017.428.005.02.01.013.104.074.015.004.012-.004.104-.074.012-.016.004-.017-.017-.427c-.002-.01-.009-.017-.016-.018Zm.264-.113-.014.002-.184.093-.01.01-.003.011.018.43.005.012.008.008.201.092c.012.004.023 0 .029-.008l.004-.014-.034-.614c-.003-.012-.01-.02-.02-.022Zm-.715.002a.023.023 0 0 0-.027.006l-.006.014-.034.614c0 .012.007.02.017.024l.015-.002.201-.093.01-.008.003-.011.018-.43-.003-.012-.01-.01-.184-.092Z"/><path fill="#09244B" d="M12 2c-1.046 0-2.066.472-2.957 1.136-.903.673-1.757 1.603-2.492 2.672C5.088 7.936 4 10.755 4 13.5c0 2.476.829 4.608 2.276 6.127C7.725 21.148 9.74 22 12 22c2.259 0 4.275-.852 5.724-2.373C19.171 18.107 20 15.977 20 13.5c0-2.745-1.088-5.564-2.551-7.692-.735-1.069-1.589-2-2.492-2.672C14.066 2.472 13.047 2 12 2ZM6 13.5c0-2.255.912-4.686 2.199-6.558.64-.931 1.349-1.688 2.04-2.203C10.94 4.216 11.545 4 12 4c.35 0 .788.128 1.292.425L10.21 8.386a1 1 0 0 0 .473 1.563l2.051.684-.684 2.05a1 1 0 0 0 1.898.633l1-3a1 1 0 0 0-.633-1.265l-1.659-.553 2.168-2.787c.335.363.664.776.976 1.23C17.088 8.815 18 11.246 18 13.5c0 2.024-.671 3.642-1.724 4.748C15.225 19.352 13.74 20 12 20c-1.741 0-3.225-.648-4.276-1.752C6.671 17.142 6 15.524 6 13.5Z"/></g></svg>
